X:35
T:Neapolitan Dance THO3.035, The
O:England;London
M:2/4
L:1/8
Z:vmp. Peter Dunk 2011.from a transcription by Fynn Titford-Mock 2006-9
B:Thompson's Compleat Collection of 200 Favourite Country Dances Vol. III.1765-72
Q:1/4=140
K:G
G|(B/c/d) cB|AGAB|(ef/g/) fe|{e}d3 c|(B/c/d) cB|AGAB|egA^c|d3|
|:G/A/B/A/ G/A/B/G/|G2 zG|!wedge!G2!wedge!e2|d4|dBBB|cAAA|BGDF|G4:|
DGGG|EGGG|(A>Bc)c|cBAG|DGGG|EGGG|A>GAB G4:|
G>AB>c|!wedge!d2!wedge!B2|!wedge!c2!wedge!A2|!wedge!B2!wedge!G2|\
!wedge!c2!wedge!A2|!wedge!B2!wedge!G2|G>AGB|G4:|
:|GDDD|E2D2|Gddd| e2d2|dDDD|E2 Dc|BG {B}AG/F/|G4:|

